images/svg/instagram.svg

<svg width="22" height="20" viewBox="0 0 22 20" fill="none" xmlns="http://www.w3.org/2000/svg">
<g clip-path="url(#clip0_1448_559)">
<path d="M15.5562 1.66663H6.66327C4.20755 1.66663 2.2168 3.53211 2.2168 5.83329V14.1666C2.2168 16.4678 4.20755 18.3333 6.66327 18.3333H15.5562C18.0119 18.3333 20.0027 16.4678 20.0027 14.1666V5.83329C20.0027 3.53211 18.0119 1.66663 15.5562 1.66663Z" stroke="white" stroke-width="2" stroke-linecap="round" stroke-linejoin="round"/>
<path d="M14.6667 9.47501C14.7765 10.1685 14.65 10.8769 14.3054 11.4992C13.9608 12.1215 13.4156 12.6262 12.7473 12.9414C12.079 13.2566 11.3216 13.3663 10.5829 13.2549C9.84417 13.1436 9.16176 12.8167 8.6327 12.321C8.10364 11.8252 7.75487 11.1857 7.636 10.4935C7.51713 9.8013 7.63422 9.09158 7.97061 8.46532C8.30699 7.83905 8.84555 7.32812 9.50967 7.00521C10.1738 6.68229 10.9297 6.56383 11.6698 6.66667C12.4247 6.77158 13.1236 7.10123 13.6633 7.60693C14.203 8.11263 14.5548 8.76757 14.6667 9.47501Z" stroke="white" stroke-width="2" stroke-linecap="round" stroke-linejoin="round"/>
<path d="M16.0005 5.41663H16.0101" stroke="white" stroke-width="2" stroke-linecap="round" stroke-linejoin="round"/>
</g>
<defs>
<clipPath id="clip0_1448_559">
<rect width="21.3431" height="20" fill="white" transform="translate(0.437988)"/>
</clipPath>
</defs>
</svg>

<svg xmlns="http://www.w3.org/2000/svg" width="22" height="20" fill="none"><g stroke="#fff" stroke-linecap="round" stroke-linejoin="round" stroke-width="2" clip-path="url(#a)"><path d="M15.556 1.667H6.663c-2.455 0-4.446 1.865-4.446 4.166v8.334c0 2.3 1.99 4.166 4.446 4.166h8.893c2.456 0 4.447-1.865 4.447-4.166V5.833c0-2.3-1.991-4.166-4.447-4.166Z"/><path d="M14.667 9.475a3.15 3.15 0 0 1-.362 2.024 3.458 3.458 0 0 1-1.558 1.442 3.77 3.77 0 0 1-2.164.314 3.646 3.646 0 0 1-1.95-.934 3.265 3.265 0 0 1-.997-1.828 3.149 3.149 0 0 1 .335-2.028 3.45 3.45 0 0 1 1.539-1.46 3.767 3.767 0 0 1 2.16-.338 3.65 3.65 0 0 1 1.993.94c.54.506.892 1.16 1.004 1.868ZM16 5.417h.01"/></g><defs><clipPath id="a"><path fill="#fff" d="M.438 0h21.343v20H.438z"/></clipPath></defs></svg>
